X: 688
T: Schwabe
T: Hessian Dance
N: Pub: J. Walsh, London, 1748
Z: 2012 John Chambers <jc:trillian.mit.edu>
S: 4: ACMV  http://archive.org/details/acompositemusicv01rugg p.2:2
N: There are no repeat symbols, but the 2nd and 3rd parts have alternate endings.
N: What phrasing does the dance require?
M: 3/4
L: 1/8
K: G
% - - - - - - - - - - - - - - - - - - - - - - - - -
V: 1
g2d2B2 | GFGAG2 | D2E2F2 | GFGAG2 | g2d2B2 | GFGAG2 | D2E2F2 | G6 |]
d2e2f2 | g4e2 | fgagaf | gbagfe | d2e2f2 | g4c2 | B2AGAF |[1 G6 ||[2 G4 |]
g2 |\
d4e2 | B4c2 | A2G2F2 | G2D2g2 | d4e2 | B4d2 | A2G2F2 |[1 G4 ||[2 G6 |]
% - - - - - - - - - - - - - - - - - - - - - - - - -
V: 2 clef=bass middle=d
G2B2d2 | g4z2 | B2c2d2 | G4z2 | G2B2d2 | g4z2 | B2c2d2 | G6 |]
B2c2d2 | e4c2 | d4D2 | G4z2 | B2c2d2 | ede2f2 | g2d2D2 |[1 G6 ||[2 G4 |]
z2 |\
z2z2g2 | d4e2 | c4d2 | B4z2 | z2z2g2 | d4B2 | c4d2 |[1 G4 ||[2 G6 |]
% - - - - - - - - - - - - - - - - - - - - - - - - -
%%begintext align
%% First and 3d Cu. change Places, back again, cross over and half figure
%% 2d Cu. do the same, cast off windmill sails with the 3d Cu. foot it
%% with your Partner and turn Right and Left with the 1st Cu. foot it
%% and turn.
%%endtext

%%sep 1 1 500
%%sep 1 1 500
